actions/48/list-add.svg

<?xml version="1.0" encoding="UTF-8" standalone="no"?>
<!-- Created with Inkscape (http://www.inkscape.org/) -->

<svg
   xmlns:svg="http://www.w3.org/2000/svg"
   xmlns="http://www.w3.org/2000/svg"
   xmlns:xlink="http://www.w3.org/1999/xlink"
   version="1.0"
   width="48"
   height="48"
   id="svg3275">
  <defs
     id="defs3277">
    <linearGradient
       id="linearGradient8838">
      <stop
         id="stop8840"
         style="stop-color:black;stop-opacity:1"
         offset="0" />
      <stop
         id="stop8842"
         style="stop-color:black;stop-opacity:0"
         offset="1" />
    </linearGradient>
    <radialGradient
       cx="62.625"
       cy="4.625"
       r="10.625"
       fx="62.625"
       fy="4.625"
       id="radialGradient2469"
       xlink:href="#linearGradient8838"
       gradientUnits="userSpaceOnUse"
       gradientTransform="matrix(2.1647059,0,0,0.7529402,-111.56471,36.517647)" />
    <linearGradient
       id="linearGradient2264">
      <stop
         id="stop2266"
         style="stop-color:#d7e866;stop-opacity:1"
         offset="0" />
      <stop
         id="stop2268"
         style="stop-color:#8cab2a;stop-opacity:1"
         offset="1" />
    </linearGradient>
    <linearGradient
       x1="24.103895"
       y1="15.180944"
       x2="24.103895"
       y2="34.224861"
       id="linearGradient2452"
       xlink:href="#linearGradient2264"
       gradientUnits="userSpaceOnUse"
       gradientTransform="matrix(1.8450847,0,0,1.8339549,-20.057077,-17.214365)" />
    <linearGradient
       id="linearGradient3259">
      <stop
         id="stop3261"
         style="stop-color:white;stop-opacity:1"
         offset="0" />
      <stop
         id="stop3263"
         style="stop-color:white;stop-opacity:0"
         offset="1" />
    </linearGradient>
    <linearGradient
       x1="24"
       y1="5"
       x2="24"
       y2="45"
       id="linearGradient3269"
       xlink:href="#linearGradient3259"
       gradientUnits="userSpaceOnUse" />
  </defs>
  <g
     id="layer1">
    <path
       d="m 46.999997,40 c 0,4.418278 -10.297452,8 -23,8 -12.702548,0 -23.0000002,-3.581722 -23.0000002,-8 0,-4.418278 10.2974522,-8 23.0000002,-8 12.702548,0 23,3.581722 23,8 l 0,0 z"
       id="path8836"
       style="opacity:0.3;fill:url(#radialGradient2469);fill-opacity:1;fill-rule:evenodd;stroke:none;stroke-width:0.99999988;marker:none;visibility:visible;display:inline;overflow:visible" />
    <path
       d="m 17.5,18.5 0,-13.0000007 13,0 0,13.0000007 13.000001,0 0,13 -13.000001,0 0,13 -13,0 0,-13 -13,0 0,-13 13,0 z"
       id="path2262"
       style="fill:url(#linearGradient2452);fill-opacity:1;fill-rule:evenodd;stroke:#699536;stroke-width:1;stroke-linecap:butt;stroke-linejoin:round;stroke-miterlimit:4;stroke-opacity:1;stroke-dasharray:none;display:inline" />
    <path
       d="m 18.5,6.5 0,12 c -0.0071,0.549332 -0.450668,0.992937 -1,1 l -12,0 0,11 12,0 c 0.549332,0.0071 0.992937,0.450668 1,1 l 0,12 11,0 0,-12 c 0.0071,-0.549332 0.450668,-0.992937 1,-1 l 12,0 0,-11 -12,0 c -0.549332,-0.0071 -0.992937,-0.450668 -1,-1 l 0,-12 -11,0 z"
       id="path3267"
       style="opacity:0.4;fill:none;stroke:url(#linearGradient3269);stroke-width:1;stroke-linecap:butt;stroke-linejoin:miter;stroke-miterlimit:4;stroke-opacity:1;stroke-dasharray:none;display:inline" />
  </g>
</svg>

<?xml version="1.0" encoding="UTF-8" standalone="no"?>
<!-- Created with Inkscape (http://www.inkscape.org/) -->
<svg
   xmlns:svg="http://www.w3.org/2000/svg"
   xmlns="http://www.w3.org/2000/svg"
   xmlns:xlink="http://www.w3.org/1999/xlink"
   version="1.0"
   width="48"
   height="48"
   id="svg3275">
  <defs
     id="defs3277">
    <linearGradient
       id="linearGradient8838">
      <stop
         id="stop8840"
         style="stop-color:#000000;stop-opacity:1"
         offset="0" />
      <stop
         id="stop8842"
         style="stop-color:#000000;stop-opacity:0"
         offset="1" />
    </linearGradient>
    <radialGradient
       cx="62.625"
       cy="4.625"
       r="10.625"
       fx="62.625"
       fy="4.625"
       id="radialGradient2469"
       xlink:href="#linearGradient8838"
       gradientUnits="userSpaceOnUse"
       gradientTransform="matrix(2.1647059,0,0,0.7529402,-111.56471,36.517647)" />
    <linearGradient
       id="linearGradient2264">
      <stop
         id="stop2266"
         style="stop-color:#d7e866;stop-opacity:1"
         offset="0" />
      <stop
         id="stop2268"
         style="stop-color:#8cab2a;stop-opacity:1"
         offset="1" />
    </linearGradient>
    <linearGradient
       x1="24.103895"
       y1="15.180944"
       x2="24.103895"
       y2="34.224861"
       id="linearGradient2452"
       xlink:href="#linearGradient2264"
       gradientUnits="userSpaceOnUse"
       gradientTransform="matrix(1.8450847,0,0,1.8339549,-20.057077,-17.214365)" />
    <linearGradient
       id="linearGradient3259">
      <stop
         id="stop3261"
         style="stop-color:#ffffff;stop-opacity:1"
         offset="0" />
      <stop
         id="stop3263"
         style="stop-color:#ffffff;stop-opacity:0"
         offset="1" />
    </linearGradient>
    <linearGradient
       x1="24"
       y1="5"
       x2="24"
       y2="45"
       id="linearGradient3269"
       xlink:href="#linearGradient3259"
       gradientUnits="userSpaceOnUse" />
  </defs>
  <g
     id="layer1">
    <path
       d="M 46.999997,40 C 46.999997,44.418278 36.702545,48 23.999997,48 C 11.297449,48 0.9999968,44.418278 0.9999968,40 C 0.9999968,35.581722 11.297449,32 23.999997,32 C 36.702545,32 46.999997,35.581722 46.999997,40 L 46.999997,40 z"
       id="path8836"
       style="opacity:0.3;fill:url(#radialGradient2469);fill-opacity:1;fill-rule:evenodd;stroke:none;stroke-width:0.99999988;stroke-linecap:butt;stroke-linejoin:round;marker:none;marker-start:none;marker-mid:none;marker-end:none;stroke-miterlimit:4;stroke-dasharray:none;stroke-dashoffset:0;stroke-opacity:1;visibility:visible;display:inline;overflow:visible" />
    <path
       d="M 17.5,18.5 L 17.5,5.4999993 L 30.5,5.4999993 L 30.5,18.5 L 43.500001,18.5 L 43.500001,31.5 L 30.5,31.5 L 30.5,44.5 L 17.5,44.5 L 17.5,31.5 L 4.5,31.5 L 4.5,18.5 L 17.5,18.5 z"
       id="path2262"
       style="fill:url(#linearGradient2452);fill-opacity:1;fill-rule:evenodd;stroke:#699536;stroke-width:1;stroke-linecap:butt;stroke-linejoin:round;stroke-miterlimit:4;stroke-dasharray:none;stroke-opacity:1;display:inline" />
    <path
       d="M 18.5,6.5 L 18.5,18.5 C 18.492937,19.049332 18.049332,19.492937 17.5,19.5 L 5.5,19.5 L 5.5,30.5 L 17.5,30.5 C 18.049332,30.507063 18.492937,30.950668 18.5,31.5 L 18.5,43.5 L 29.5,43.5 L 29.5,31.5 C 29.507063,30.950668 29.950668,30.507063 30.5,30.5 L 42.5,30.5 L 42.5,19.5 L 30.5,19.5 C 29.950668,19.492937 29.507063,19.049332 29.5,18.5 L 29.5,6.5 L 18.5,6.5 z"
       id="path3267"
       style="opacity:0.4;fill:none;fill-opacity:1;fill-rule:evenodd;stroke:url(#linearGradient3269);stroke-width:1;stroke-linecap:butt;stroke-linejoin:miter;stroke-miterlimit:4;stroke-dasharray:none;stroke-opacity:1;display:inline" />
  </g>
</svg>
